X: 52
T: the Knotted Cord
R: reel
Z: 2012 John Chambers <jc@trillian.mit.edu>
B: "100 Essential Irish Session Tunes" 1995 Dave Mallinson, ed.
M: 4/4
L: 1/8
K: Ador
G |\
"Am"A3B AEEG | ABcd edBA | "G"GFGA GEDE | ((3GFG) BG dGBG |
"Am"A2AB AEEG | ABcd edBA | "G"GABd gfge | dBGA | "Am"BA A :|
|: g |\
"Am"eaag ea~a2 | eaab aged | "G"egdg eg~g2 | egga gedf |
"Am"eaag ea~a2 | eaab aged | "G"BABd gfge | dBGA | "Am"BA A :|

%%sep 2 1 500
%%sep 1 1 500

